packages/katcn/src/icons/svg/settings-solid.svg

<svg width="24" height="24" viewBox="0 0 24 24" fill="none" xmlns="http://www.w3.org/2000/svg">
<path d="M20.2 5.25888L14 1.52921C12.8 0.823597 11.3 0.823597 10.1 1.52921L3.8 5.25888C2.7 5.96449 2 7.27491 2 8.58534V15.3391C2 16.6495 2.7 17.9599 3.8 18.6655L10 22.496C10.6 22.8992 11.3 23 12 23C12.7 23 13.4 22.7984 14 22.496L20.2 18.7663C21.3 18.0607 22 16.8511 22 15.4399V8.58534C22 7.27491 21.3 5.96449 20.2 5.25888ZM12 15.7423C10 15.7423 8.3 14.0286 8.3 12.0126C8.3 9.99656 9.9 8.28293 12 8.28293C14.1 8.28293 15.7 9.89576 15.7 12.0126C15.7 14.0286 14 15.7423 12 15.7423Z" fill="black"/>
</svg>

<svg xmlns="http://www.w3.org/2000/svg" fill="none" viewBox="0 0 24 24"><path fill="#000" d="M20.2 5.259 14 1.529a3.86 3.86 0 0 0-3.9 0L3.8 5.26C2.7 5.964 2 7.275 2 8.585v6.754c0 1.31.7 2.62 1.8 3.327l6.2 3.83c.6.403 1.3.504 2 .504s1.4-.202 2-.504l6.2-3.73A3.9 3.9 0 0 0 22 15.44V8.585c0-1.31-.7-2.62-1.8-3.326M12 15.742c-2 0-3.7-1.713-3.7-3.73 0-2.015 1.6-3.73 3.7-3.73s3.7 1.614 3.7 3.73c0 2.017-1.7 3.73-3.7 3.73"/></svg>
